Newaita-dark/actions/16/view-list-details.svg

<svg height="16" viewBox="0 0 16 16" width="16" xmlns="http://www.w3.org/2000/svg"><g fill="#e0e0e0"><path d="m8.929688 2.769531h5.292968c.183594 0 .332032.148438.332032.332031v.660157c0 .183593-.148438.332031-.332032.332031h-5.292968c-.183594 0-.328126-.148438-.328126-.332031v-.660157c0-.183593.144532-.332031.328126-.332031zm0 0"/><path d="m8.929688 12.03125h5.292968c.183594 0 .332032.148438.332032.332031v.660157c0 .183593-.148438.332031-.332032.332031h-5.292968c-.183594 0-.328126-.148438-.328126-.332031v-.660157c0-.183593.144532-.332031.328126-.332031zm0 0"/><path d="m8.929688 7.402344h5.292968c.183594 0 .332032.148437.332032.332031v.660156c0 .183594-.148438.332031-.332032.332031h-5.292968c-.183594 0-.328126-.148437-.328126-.332031v-.660156c0-.183594.144532-.332031.328126-.332031zm0 0"/><path d="m2.644531 1.449219c-.730469 0-1.320312.589843-1.320312 1.320312v4.632813h5.953125v-5.953125zm.664063 1.320312h2.644531v3.308594h-3.308594v-2.644531c0-.367188.296875-.664063.664063-.664063zm0 0"/><path d="m2.644531 14.679688c-.730469 0-1.320312-.589844-1.320312-1.324219v-4.628907h5.953125v5.953126zm.664063-1.324219h2.644531v-3.308594h-3.308594v2.648437c0 .363282.296875.660157.664063.660157zm0 0"/></g></svg>

<svg xmlns="http://www.w3.org/2000/svg" xmlns:xlink="http://www.w3.org/1999/xlink" width="16px" height="16px" viewBox="0 0 16 16" version="1.1">
<g id="surface1">
     <defs>
  <style id="current-color-scheme" type="text/css">
   .ColorScheme-Text { color:#eeeeee; } .ColorScheme-Highlight { color:#424242; }
  </style>
 </defs>
<path style="fill:currentColor" class="ColorScheme-Text" d="M 8.929688 2.769531 L 14.222656 2.769531 C 14.40625 2.769531 14.554688 2.917969 14.554688 3.101562 L 14.554688 3.761719 C 14.554688 3.945312 14.40625 4.09375 14.222656 4.09375 L 8.929688 4.09375 C 8.746094 4.09375 8.601562 3.945312 8.601562 3.761719 L 8.601562 3.101562 C 8.601562 2.917969 8.746094 2.769531 8.929688 2.769531 Z M 8.929688 2.769531 "/>
     <defs>
  <style id="current-color-scheme" type="text/css">
   .ColorScheme-Text { color:#eeeeee; } .ColorScheme-Highlight { color:#424242; }
  </style>
 </defs>
<path style="fill:currentColor" class="ColorScheme-Text" d="M 8.929688 12.03125 L 14.222656 12.03125 C 14.40625 12.03125 14.554688 12.179688 14.554688 12.363281 L 14.554688 13.023438 C 14.554688 13.207031 14.40625 13.355469 14.222656 13.355469 L 8.929688 13.355469 C 8.746094 13.355469 8.601562 13.207031 8.601562 13.023438 L 8.601562 12.363281 C 8.601562 12.179688 8.746094 12.03125 8.929688 12.03125 Z M 8.929688 12.03125 "/>
     <defs>
  <style id="current-color-scheme" type="text/css">
   .ColorScheme-Text { color:#eeeeee; } .ColorScheme-Highlight { color:#424242; }
  </style>
 </defs>
<path style="fill:currentColor" class="ColorScheme-Text" d="M 8.929688 7.402344 L 14.222656 7.402344 C 14.40625 7.402344 14.554688 7.550781 14.554688 7.734375 L 14.554688 8.394531 C 14.554688 8.578125 14.40625 8.726562 14.222656 8.726562 L 8.929688 8.726562 C 8.746094 8.726562 8.601562 8.578125 8.601562 8.394531 L 8.601562 7.734375 C 8.601562 7.550781 8.746094 7.402344 8.929688 7.402344 Z M 8.929688 7.402344 "/>
     <defs>
  <style id="current-color-scheme" type="text/css">
   .ColorScheme-Text { color:#eeeeee; } .ColorScheme-Highlight { color:#424242; }
  </style>
 </defs>
<path style="fill:currentColor" class="ColorScheme-Text" d="M 2.644531 1.449219 C 1.914062 1.449219 1.324219 2.039062 1.324219 2.769531 L 1.324219 7.402344 L 7.277344 7.402344 L 7.277344 1.449219 Z M 3.308594 2.769531 L 5.953125 2.769531 L 5.953125 6.078125 L 2.644531 6.078125 L 2.644531 3.433594 C 2.644531 3.066406 2.941406 2.769531 3.308594 2.769531 Z M 3.308594 2.769531 "/>
     <defs>
  <style id="current-color-scheme" type="text/css">
   .ColorScheme-Text { color:#eeeeee; } .ColorScheme-Highlight { color:#424242; }
  </style>
 </defs>
<path style="fill:currentColor" class="ColorScheme-Text" d="M 2.644531 14.679688 C 1.914062 14.679688 1.324219 14.089844 1.324219 13.355469 L 1.324219 8.726562 L 7.277344 8.726562 L 7.277344 14.679688 Z M 3.308594 13.355469 L 5.953125 13.355469 L 5.953125 10.046875 L 2.644531 10.046875 L 2.644531 12.695312 C 2.644531 13.058594 2.941406 13.355469 3.308594 13.355469 Z M 3.308594 13.355469 "/>
</g>
</svg>
